X:1
T:Title
%%score { ( 1 3 ) | ( 2 4 ) }
L:1/8
M:12/8
K:D
V:1 treble nm="Grand Piano"
V:3 treble 
V:2 bass 
V:4 bass 
V:1
 z6 z3 [DF]2 [EG] | [FA]6- [FA]2 [Fd] [Ac]2 [GB] | [GB]3 [FA]6 [FA]2 d | c6- c2 B A2 [EG] | %4
 [DF]6- [DF]2 z [DF]2 [EG] | [FA]6- [FA]2 [Fd] [Ge]2 [Fd] | c3 B6 d2 B | A6- A2 d c2 A | %8
[M:9/8] [Fd]6- [Fd]2 z |[M:3/8] AFB |[M:6/4] z2 z F2 F F2 [Fd] [Ge]2 [Fd] | d6 z6 | %12
 z2 z [A,E]2 [A,E] [CE]2 [DB] [Ec]2 [CGB] | .A12 | .d12 | c6 z6 | A3 d3 [Gd]3 [Gc]3 | %17
[M:9/8] [Fd]6- [Fd]2 z |] %18
V:2
 z6 z3 [D,A,]2 [D,A,] | [D,D]6- [D,D]2 [D,A,] [G,B,]2 [G,D] | [D,D]3 [D,D]6 [D,A,]2 [F,A,D] | %3
 [A,E]6- [A,E]2 [A,CG] [A,DF]2[K:bass] [A,,A,] | [D,A,]6- [D,A,]2 z [D,A,]2 [D,A,] | %5
 [D,D]6- [D,D]2 [D,A,] [C,A,]2 [D,A,] | [F,^A,E]3[K:treble] [G,B,D]6 [G,B,E]2 [^G,D=F] | %7
 [A,DF]6- [A,DF]2 [A,F] [A,E]2 [A,CG] |[M:9/8][K:bass] [D,A,]6- [D,A,]2 z |[M:3/8] z3 | %10
[M:6/4] z2 z [D,D]2 [D,D] [D,D]2 [D,A,] [C,A,]2 [D,A,] | %11
 [E,A,]2 [E,A,] [E,A,]2 [E,A,] .[E,A,]3[K:treble] GEA | .G12[K:bass] | %13
 [D,D]2 [D,D] [D,D]2 [D,D] .[D,D]6 | F3 [D,A,]2 [D,A,] [D,A,]2 [D,A,] [F,^A,]2 [F,A,F] | %15
 [F,A,E]2 [F,A,] [F,A,]2 [F,A,][K:treble] .[G,B,D]3 [G,B,E]2 [^G,C=F] | %16
 [A,DF]3 [A,F]3[K:bass] [A,,A,]3 [A,,A,]3 |[M:9/8] [D,A,]6- [D,A,]2 z |] %18
V:3
 x12 | x12 | x12 | x12 | x12 | x12 | x12 | x12 |[M:9/8] x9 |[M:3/8] x3 |[M:6/4] .A12 | %11
 G2 G G2 G .[Gc]6 | x12 | F2 F F2 F .F3 DFA | z2 z F2 F F2 [Ec] [Ge]2 d | z2 E E2 E .B3 c2 B | %16
 x12 |[M:9/8] x9 |] %18
V:4
 x12 | x12 | x12 | x11[K:bass] x | x12 | x12 | x3[K:treble] x9 | x12 |[M:9/8][K:bass] x9 | %9
[M:3/8] x3 |[M:6/4] x12 | x9[K:treble] x3 | z2 z[K:bass] A,,2 A,, A,,2 [A,,A,] [A,,A,]2 A,, | x12 | %14
 x12 | x6[K:treble] x6 | x6[K:bass] x6 |[M:9/8] x9 |] %18

